src/components/Home/icons/stars.svg

<svg width="89" height="16" viewBox="0 0 89 16" xmlns="http://www.w3.org/2000/svg">
  <path d="M8.2517 12.3496L4.35116 14.5985C4.23654 14.6525 4.13016 14.6744 4.03202 14.6641C3.9346 14.6532 3.83968 14.621 3.74727 14.5677C3.65415 14.513 3.58394 14.4357 3.53667 14.3358C3.48939 14.236 3.48509 14.1269 3.52377 14.0086L4.56177 9.79201L1.12865 6.95019C1.03194 6.87496 0.968182 6.78502 0.937379 6.68038C0.906576 6.57573 0.913381 6.47553 0.957795 6.37978C1.00221 6.28403 1.06131 6.20537 1.13509 6.14382C1.20959 6.08431 1.30988 6.04396 1.43596 6.02276L5.96618 5.64522L7.7327 1.65232C7.78141 1.53946 7.85162 1.45807 7.94331 1.40814C8.035 1.35822 8.1378 1.33325 8.2517 1.33325C8.3656 1.33325 8.46876 1.35822 8.56116 1.40814C8.65357 1.45807 8.72342 1.53946 8.7707 1.65232L10.5372 5.64522L15.0664 6.02276C15.1932 6.04328 15.2938 6.08397 15.3683 6.14484C15.4428 6.20503 15.5023 6.28334 15.5467 6.37978C15.5904 6.47553 15.5968 6.57573 15.566 6.68038C15.5352 6.78502 15.4715 6.87496 15.3748 6.95019L11.9416 9.79201L12.9796 14.0086C13.0197 14.1255 13.0158 14.2343 12.9678 14.3348C12.9198 14.4353 12.8493 14.5126 12.7561 14.5667C12.6644 14.6214 12.5695 14.6539 12.4714 14.6641C12.374 14.6744 12.2679 14.6525 12.1533 14.5985L8.2517 12.3496Z" />
  <path d="M26.2517 12.3496L22.3512 14.5985C22.2365 14.6525 22.1302 14.6744 22.032 14.6641C21.9346 14.6532 21.8397 14.621 21.7473 14.5677C21.6541 14.513 21.5839 14.4357 21.5367 14.3358C21.4894 14.236 21.4851 14.1269 21.5238 14.0086L22.5618 9.79201L19.1286 6.95019C19.0319 6.87496 18.9682 6.78502 18.9374 6.68038C18.9066 6.57573 18.9134 6.47553 18.9578 6.37978C19.0022 6.28403 19.0613 6.20537 19.1351 6.14382C19.2096 6.08431 19.3099 6.04396 19.436 6.02276L23.9662 5.64522L25.7327 1.65232C25.7814 1.53946 25.8516 1.45807 25.9433 1.40814C26.035 1.35822 26.1378 1.33325 26.2517 1.33325C26.3656 1.33325 26.4688 1.35822 26.5612 1.40814C26.6536 1.45807 26.7234 1.53946 26.7707 1.65232L28.5372 5.64522L33.0664 6.02276C33.1932 6.04328 33.2938 6.08397 33.3683 6.14484C33.4428 6.20503 33.5023 6.28334 33.5467 6.37978C33.5904 6.47553 33.5968 6.57573 33.566 6.68038C33.5352 6.78502 33.4715 6.87496 33.3748 6.95019L29.9416 9.79201L30.9796 14.0086C31.0197 14.1255 31.0158 14.2343 30.9678 14.3348C30.9198 14.4353 30.8493 14.5126 30.7561 14.5667C30.6644 14.6214 30.5695 14.6539 30.4714 14.6641C30.374 14.6744 30.2679 14.6525 30.1533 14.5985L26.2517 12.3496Z" />
  <path d="M44.2517 12.3496L40.3512 14.5985C40.2365 14.6525 40.1302 14.6744 40.032 14.6641C39.9346 14.6532 39.8397 14.621 39.7473 14.5677C39.6541 14.513 39.5839 14.4357 39.5367 14.3358C39.4894 14.236 39.4851 14.1269 39.5238 14.0086L40.5618 9.79201L37.1286 6.95019C37.0319 6.87496 36.9682 6.78502 36.9374 6.68038C36.9066 6.57573 36.9134 6.47553 36.9578 6.37978C37.0022 6.28403 37.0613 6.20537 37.1351 6.14382C37.2096 6.08431 37.3099 6.04396 37.436 6.02276L41.9662 5.64522L43.7327 1.65232C43.7814 1.53946 43.8516 1.45807 43.9433 1.40814C44.035 1.35822 44.1378 1.33325 44.2517 1.33325C44.3656 1.33325 44.4688 1.35822 44.5612 1.40814C44.6536 1.45807 44.7234 1.53946 44.7707 1.65232L46.5372 5.64522L51.0664 6.02276C51.1932 6.04328 51.2938 6.08397 51.3683 6.14484C51.4428 6.20503 51.5023 6.28334 51.5467 6.37978C51.5904 6.47553 51.5968 6.57573 51.566 6.68038C51.5352 6.78502 51.4715 6.87496 51.3748 6.95019L47.9416 9.79201L48.9796 14.0086C49.0197 14.1255 49.0158 14.2343 48.9678 14.3348C48.9198 14.4353 48.8493 14.5126 48.7561 14.5667C48.6644 14.6214 48.5695 14.6539 48.4714 14.6641C48.374 14.6744 48.2679 14.6525 48.1533 14.5985L44.2517 12.3496Z" />
  <path d="M62.2517 12.3496L58.3512 14.5985C58.2365 14.6525 58.1302 14.6744 58.032 14.6641C57.9346 14.6532 57.8397 14.621 57.7473 14.5677C57.6541 14.513 57.5839 14.4357 57.5367 14.3358C57.4894 14.236 57.4851 14.1269 57.5238 14.0086L58.5618 9.79201L55.1286 6.95019C55.0319 6.87496 54.9682 6.78502 54.9374 6.68038C54.9066 6.57573 54.9134 6.47553 54.9578 6.37978C55.0022 6.28403 55.0613 6.20537 55.1351 6.14382C55.2096 6.08431 55.3099 6.04396 55.436 6.02276L59.9662 5.64522L61.7327 1.65232C61.7814 1.53946 61.8516 1.45807 61.9433 1.40814C62.035 1.35822 62.1378 1.33325 62.2517 1.33325C62.3656 1.33325 62.4688 1.35822 62.5612 1.40814C62.6536 1.45807 62.7234 1.53946 62.7707 1.65232L64.5372 5.64522L69.0664 6.02276C69.1932 6.04328 69.2938 6.08397 69.3683 6.14484C69.4428 6.20503 69.5023 6.28334 69.5467 6.37978C69.5904 6.47553 69.5968 6.57573 69.566 6.68038C69.5352 6.78502 69.4715 6.87496 69.3748 6.95019L65.9416 9.79201L66.9796 14.0086C67.0197 14.1255 67.0158 14.2343 66.9678 14.3348C66.9198 14.4353 66.8493 14.5126 66.7561 14.5667C66.6644 14.6214 66.5695 14.6539 66.4714 14.6641C66.374 14.6744 66.2679 14.6525 66.1533 14.5985L62.2517 12.3496Z" />
  <path d="M80.2517 12.3496L76.3512 14.5985C76.2365 14.6525 76.1302 14.6744 76.032 14.6641C75.9346 14.6532 75.8397 14.621 75.7473 14.5677C75.6541 14.513 75.5839 14.4357 75.5367 14.3358C75.4894 14.236 75.4851 14.1269 75.5238 14.0086L76.5618 9.79201L73.1286 6.95019C73.0319 6.87496 72.9682 6.78502 72.9374 6.68038C72.9066 6.57573 72.9134 6.47553 72.9578 6.37978C73.0022 6.28403 73.0613 6.20537 73.1351 6.14382C73.2096 6.08431 73.3099 6.04396 73.436 6.02276L77.9662 5.64522L79.7327 1.65232C79.7814 1.53946 79.8516 1.45807 79.9433 1.40814C80.035 1.35822 80.1378 1.33325 80.2517 1.33325C80.3656 1.33325 80.4688 1.35822 80.5612 1.40814C80.6536 1.45807 80.7234 1.53946 80.7707 1.65232L82.5372 5.64522L87.0664 6.02276C87.1932 6.04328 87.2938 6.08397 87.3683 6.14484C87.4428 6.20503 87.5023 6.28334 87.5467 6.37978C87.5904 6.47553 87.5968 6.57573 87.566 6.68038C87.5352 6.78502 87.4715 6.87496 87.3748 6.95019L83.9416 9.79201L84.9796 14.0086C85.0197 14.1255 85.0158 14.2343 84.9678 14.3348C84.9198 14.4353 84.8493 14.5126 84.7561 14.5667C84.6644 14.6214 84.5695 14.6539 84.4714 14.6641C84.374 14.6744 84.2679 14.6525 84.1533 14.5985L80.2517 12.3496Z" />
</svg>

<svg xmlns="http://www.w3.org/2000/svg" width="89" height="16">
  <path d="m8.252 12.35-3.9 2.248a.602.602 0 0 1-.32.066.729.729 0 0 1-.285-.096.52.52 0 0 1-.21-.232.428.428 0 0 1-.013-.327l1.038-4.217L1.129 6.95a.528.528 0 0 1-.192-.27.414.414 0 0 1 .02-.3.667.667 0 0 1 .178-.236c.075-.06.175-.1.301-.121l4.53-.378 1.767-3.993a.484.484 0 0 1 .21-.244.634.634 0 0 1 .309-.075.64.64 0 0 1 .31.075c.092.05.161.131.209.244l1.766 3.993 4.53.378c.126.02.227.061.301.122a.64.64 0 0 1 .179.235c.043.096.05.196.019.3a.528.528 0 0 1-.191.27l-3.433 2.842 1.038 4.217a.417.417 0 0 1-.012.326.52.52 0 0 1-.212.232.691.691 0 0 1-.285.097.6.6 0 0 1-.318-.066L8.252 12.35ZM26.252 12.35l-3.9 2.248a.602.602 0 0 1-.32.066.729.729 0 0 1-.285-.096.52.52 0 0 1-.21-.232.428.428 0 0 1-.013-.327l1.038-4.217-3.433-2.842a.528.528 0 0 1-.192-.27.414.414 0 0 1 .02-.3.667.667 0 0 1 .178-.236c.075-.06.175-.1.301-.121l4.53-.378 1.767-3.993a.483.483 0 0 1 .21-.244.634.634 0 0 1 .309-.075.64.64 0 0 1 .31.075c.092.05.161.131.209.244l1.766 3.993 4.53.378c.126.02.227.061.301.122a.64.64 0 0 1 .179.235c.043.096.05.196.019.3a.528.528 0 0 1-.191.27l-3.433 2.842 1.038 4.217a.417.417 0 0 1-.012.326.52.52 0 0 1-.212.232.691.691 0 0 1-.285.097.6.6 0 0 1-.318-.066l-3.901-2.248ZM44.252 12.35l-3.9 2.248a.602.602 0 0 1-.32.066.729.729 0 0 1-.285-.096.52.52 0 0 1-.21-.232.428.428 0 0 1-.013-.327l1.038-4.217-3.433-2.842a.528.528 0 0 1-.192-.27.414.414 0 0 1 .02-.3.667.667 0 0 1 .178-.236c.075-.06.175-.1.301-.121l4.53-.378 1.767-3.993a.483.483 0 0 1 .21-.244.634.634 0 0 1 .309-.075.64.64 0 0 1 .31.075c.092.05.161.131.209.244l1.766 3.993 4.53.378c.126.02.227.061.301.122a.64.64 0 0 1 .179.235c.043.096.05.196.019.3a.528.528 0 0 1-.191.27l-3.433 2.842 1.038 4.217a.417.417 0 0 1-.012.326.52.52 0 0 1-.212.232.691.691 0 0 1-.285.097.6.6 0 0 1-.318-.066l-3.901-2.248ZM62.252 12.35l-3.9 2.248a.602.602 0 0 1-.32.066.729.729 0 0 1-.285-.096.52.52 0 0 1-.21-.232.428.428 0 0 1-.013-.327l1.038-4.217-3.433-2.842a.528.528 0 0 1-.192-.27.414.414 0 0 1 .02-.3.667.667 0 0 1 .178-.236c.075-.06.175-.1.301-.121l4.53-.378 1.767-3.993a.483.483 0 0 1 .21-.244.634.634 0 0 1 .309-.075.64.64 0 0 1 .31.075c.092.05.161.131.209.244l1.766 3.993 4.53.378c.126.02.227.061.301.122a.64.64 0 0 1 .179.235c.043.096.05.196.019.3a.528.528 0 0 1-.191.27l-3.433 2.842 1.038 4.217a.417.417 0 0 1-.012.326.52.52 0 0 1-.212.232.691.691 0 0 1-.285.097.6.6 0 0 1-.318-.066l-3.901-2.248ZM80.252 12.35l-3.9 2.248a.602.602 0 0 1-.32.066.729.729 0 0 1-.285-.096.52.52 0 0 1-.21-.232.428.428 0 0 1-.013-.327l1.038-4.217-3.433-2.842a.528.528 0 0 1-.192-.27.414.414 0 0 1 .02-.3.667.667 0 0 1 .178-.236c.075-.06.175-.1.301-.121l4.53-.378 1.767-3.993a.483.483 0 0 1 .21-.244.634.634 0 0 1 .309-.075.64.64 0 0 1 .31.075c.092.05.161.131.209.244l1.766 3.993 4.53.378c.126.02.227.061.301.122a.64.64 0 0 1 .179.235c.043.096.05.196.019.3a.528.528 0 0 1-.191.27l-3.433 2.842 1.038 4.217a.417.417 0 0 1-.012.326.52.52 0 0 1-.212.232.691.691 0 0 1-.285.097.6.6 0 0 1-.318-.066l-3.901-2.248Z"/>
</svg>
